!!!OTL: 1378. Abschied vor dem Feldzuge.
!!!ODT: 1880
!!!ARE: Europa, Mitteleuropa, Deutschland, Hessen, Dillkreis, Ober- Lahnkreis
!!!SCT: E1378
!!!TXL: @@DE
!!!YEM: Copyright 1995, estate of Helmut Schaffrath.
**kern	**text
*ICvox	*
*M4/4	*
*met(c)	*
*k[f#c#]	*
*D:	*
!LO:TX:a:t=Aus dem Dill- und Oberlahnkreis. 1880.	!
{8d	Lebt
8d	wohl,
16f#L	lebt
16gJ	.
=1	=1
4.a	wohl,
8f#	wir
8.dd	müſ-
16cc#	-ſen
8.b	Ab-
16a	-ſchied
=2	=2
8aL	neh-
8gJ	.
4g	-men,
8r}	.
{8g	die
8e	Ku-
8f#	-gel
=3	=3
4.g	iſt
8g	ins
8g	Flin-
8b/	-ten-
8a	-rohr
8g	ge-
=4	=4
2f#	-ſteckt,
8r}	.
{8d	Und
8d	un-
16f#L	-ſer
16gJ	.
=5	=5
4.a	jun-
8f#	-ges
8.dd	al-
16cc#	-ler-
8.b	-lieb-
16a	-ſtes
=6	=6
8aL	Le-
8gJ	.
4g	-ben
8r}	.
{8g	im
8e	Krieg
8f#	und
=7	=7
4.g	auf
8g	dem
8g	Schlachtfeld
8b/	.
8a	hin-
8g	-ge-
=8	=8
2f#	-ſtreckt.
8r}	.
{8a	Dort
8b/	auf
8a	dem
=9	=9
4.e	Feld,
8d	wo
8c#	un-
8e	-ſer
8b/	Blut
16aL	einſt
16gJ	.
=10	=10
4f#	rinnt,
4r	.
8r}	.
{8a	wo
8b/	ſo
8a	viel
=11	=11
4.e	Tod-
8d	-te
8c#	und
8e	Ver-
8b/	-wund-
16aL	-te
16gJ	.
=12	=12
4f#	ſind,
4r	.
8r}	.
{8d	dort
8d	iſt
16f#L	für
16gJ	.
=13	=13
4.a	mich
8a	das
8a	küh-
8dd	-le
8ff#	Grab
8dd	be-
=14	=14
(4dd	-ſtellt
4b)	.
8r}	.
{8dd	leb
8cc#	wohl,
8b	leb
=15	=15
4.a	wohl,
8a	du
8b/	eit-
8a	-le,
8g	eit-
8a	-le
=16	=16
2f#	Welt!
8r}	.
==	==
!!!AGN: Staende -, Soldaten -, Kriegs - Lied
!!!ONB: ESAC (Essen Associative Code) Database: ERK3
!!!AMT: simple quadruple
!!!AIN: vox
!!!EED: Helmut Schaffrath
!!!EEV: 1.0
!!!GTL: Staendelieder (Berufslieder). 1. Soldaten- und Kriegslieder. Soldatenlieder seit dem 30jaehr. Kriege.
!!!URL-scan: https://rosdok.uni-rostock.de/mcrviewer/recordIdentifier/rosdok_ppn745177999/iview2/phys_0251.iview2?x=-101.51655504651899&y=147.40559278742876&scale=0.5870222003877487&rotation=0&layout=singlePageLayout
!!!ENC: Anna Maria Matuszewska
!!!EEV: 2024/12/30
*-	*-
